X:2960
T:Chicago Reel, The
R:reel
S:played in Madison, Wisconsin
N:transcribed by Alan Ng
Z: id:ng-reels-17 transcribed by Alan Ng agng@students.wisc.edu Feb. 26, 1997
E:12
M:C|
K:ADor
AB|cded cAGE|~G3E GAcd|ecgc acgc|e~a3 eged|\
cded cAGE|~G3E GAcd|eaag eged|cABG A2::\
AB|cdef gfga|gedc BGGB|cdef g2ed|eaag aged|\
^cdef ~g3e|~a3f ~g3e|~f3d (3efg ed|cABG A2:|**


